32x32/places/user-violet-desktop.svg

<svg xmlns="http://www.w3.org/2000/svg" width="32" height="32"><rect style="opacity:.2" width="28" height="26" x="2" y="4" rx="1.4" ry="1.4"/><path style="fill:#7e57c2" d="M2 7v20.6c0 .775.625 1.4 1.4 1.4h25.2c.775 0 1.4-.625 1.4-1.4V7l-1-1H3z"/><path style="fill:#2c1e44" d="M3.4 3C2.625 3 2 3.625 2 4.4V7h28V4.4c0-.775-.625-1.4-1.4-1.4zM10.4 25c-.775 0-1.4.625-1.4 1.4V29h13v-2.6c0-.775-.625-1.4-1.4-1.4H10.4z"/><path style="opacity:.1;fill:#f4f4f7" d="M3.4 3C2.625 3 2 3.625 2 4.4v1C2 4.625 2.625 4 3.4 4h25.2c.775 0 1.4.625 1.4 1.4v-1c0-.775-.625-1.4-1.4-1.4z"/></svg>

<svg xmlns="http://www.w3.org/2000/svg" width="32" height="32" version="1.1">
 <rect style="opacity:0.2" width="28" height="26" x="2" y="4" rx="1.4" ry="1.4"/>
 <path style="fill:#7e57c2" d="M 2,7 V 27.6 C 2,28.375 2.6248,29 3.4,29 H 28.6 C 29.375,29 30,28.375 30,27.6 V 7 L 29,6 H 3 Z"/>
 <path style="fill:#2c1e44" d="M 3.4,3 C 2.625,3 2,3.625 2,4.4 V 7 H 30 V 4.4 C 30,3.625 29.375,3 28.6,3 Z"/>
 <path style="fill:#2c1e44" d="M 10.4 25 C 9.6248 25 9 25.625 9 26.4 L 9 29 L 22 29 L 22 26.4 C 22 25.625 21.375 25 20.6 25 L 10.4 25 z"/>
 <path style="opacity:0.1;fill:#f4f4f7" d="M 3.4,3 C 2.625,3 2,3.625 2,4.4 V 5.4 C 2,4.625 2.625,4 3.4,4 H 28.6 C 29.375,4 30,4.625 30,5.4 V 4.4 C 30,3.625 29.375,3 28.6,3 Z"/>
</svg>
